polaris-icons/icons/new-icons/ReadTimeMinor.svg

<svg width="20" height="20" viewBox="0 0 20 20" fill="none" xmlns="http://www.w3.org/2000/svg">
<path d="M10.25 6C9.83579 6 9.5 6.33579 9.5 6.75C9.5 7.16421 9.83579 7.5 10.25 7.5H12.75C13.1642 7.5 13.5 7.16421 13.5 6.75C13.5 6.33579 13.1637 6 12.7494 6H10.25Z" fill="#4A4A4A"/>
<path d="M9.5 9.25C9.5 8.83579 9.83579 8.5 10.25 8.5H12.7494C13.1637 8.5 13.5 8.83579 13.5 9.25C13.5 9.66421 13.1642 10 12.75 10H10.25C9.83579 10 9.5 9.66421 9.5 9.25Z" fill="#4A4A4A"/>
<path fill-rule="evenodd" clip-rule="evenodd" d="M5.75 3C4.7835 3 4 3.7835 4 4.75V14.75C4 15.9926 5.00736 17 6.25 17H15.25C15.6642 17 16 16.6642 16 16.25C16 15.8358 15.6642 15.5 15.25 15.5H15V13.8316C15.5912 13.5507 16 12.9481 16 12.25V4.75C16 3.7835 15.2165 3 14.25 3H5.75ZM7 4.5H5.75C5.61193 4.5 5.5 4.61193 5.5 4.75V12.628C5.73458 12.5451 5.98702 12.5 6.25 12.5H7V4.5ZM8.5 12.5V4.5H14.25C14.3881 4.5 14.5 4.61193 14.5 4.75V12.25C14.5 12.3881 14.3881 12.5 14.25 12.5H8.5ZM6.25 15.5C5.83579 15.5 5.5 15.1642 5.5 14.75C5.5 14.3358 5.83579 14 6.25 14H13.5V15.5H6.25Z" fill="#4A4A4A"/>
</svg>

<svg viewBox="0 0 20 20" xmlns="http://www.w3.org/2000/svg"><path d="M10.25 6a.75.75 0 0 0 0 1.5h2.5a.75.75 0 1 0 0-1.5h-2.5Z" fill="#5C5F62"/><path d="M9.5 9.25a.75.75 0 0 1 .75-.75h2.5a.75.75 0 0 1 0 1.5h-2.5a.75.75 0 0 1-.75-.75Z" fill="#5C5F62"/><path fill-rule="evenodd" d="M5.75 3a1.75 1.75 0 0 0-1.75 1.75v10a2.25 2.25 0 0 0 2.25 2.25h9a.75.75 0 0 0 0-1.5h-.25v-1.668c.591-.281 1-.884 1-1.582v-7.5a1.75 1.75 0 0 0-1.75-1.75h-8.5Zm1.25 1.5h-1.25a.25.25 0 0 0-.25.25v7.878c.235-.083.487-.128.75-.128h.75v-8Zm1.5 8v-8h5.75a.25.25 0 0 1 .25.25v7.5a.25.25 0 0 1-.25.25h-5.75Zm-2.25 3a.75.75 0 0 1 0-1.5h7.25v1.5h-7.25Z" fill="#5C5F62"/></svg>
